X: 20429
T: John Griffin's
R: reel
M: 4/4
K: Adorian
JA6-A{c/}A|JE1-{A/}E-E4{A/}ED|EG2JB1-B4-|B{c/}BA{c/}A4G|
JE6{A/}ED|JE8|JA-A6B|de-e6|
|:{a/}e~A3 {c/}BGGD|EG{c/}AB {c/}Ae{a/}gf|e~A3 {c/}BGGz|EG{c/}Ac {c/}BA{c/}Bd|
e~A3 {c/}BGGD|EG{c/}AB {c/}AGBg|e~A3 {c/}BGGD|1 EG{c/}Ac {c/}A2 Bd:|2 EGAc JA2 cB||
JA2 ef f!slide!g {a/}fe|d~G3 {c/}Bdeg|Az ef f!slide!g fe|dG{c/}Bd {c'/}agfd|
~e2 Aef !slide!g {a/}fe|d~G3 Bdeg|agfa ez ef|gGBd cBAB:|

